src/assets/images/landig/geo.svg

<svg width="56" height="56" viewBox="0 0 56 56" fill="none" xmlns="http://www.w3.org/2000/svg">
<g clip-path="url(#clip0_1_189)">
<path d="M26.0456 9.98365C26.1013 9.98298 26.157 9.98231 26.2143 9.98162C27.4193 9.97011 28.5806 9.97558 29.756 10.2734C29.8154 10.2877 29.8749 10.3019 29.9362 10.3167C32.0161 10.824 33.8071 11.8374 35.4298 13.2128C35.5046 13.275 35.5046 13.275 35.5809 13.3383C35.8576 13.5726 36.1009 13.82 36.3348 14.097C36.4136 14.1894 36.4946 14.2802 36.5778 14.3688C38.5624 16.4926 39.6216 19.4272 39.7364 22.3046C39.7419 22.4065 39.7419 22.4065 39.7474 22.5105C39.8512 26.0337 37.8246 29.6145 36.1134 32.5585C36.077 32.6214 36.0406 32.6843 36.0031 32.7492C34.8411 34.7541 33.5596 36.6861 32.2169 38.5742C32.1806 38.6254 32.1442 38.6766 32.1068 38.7293C31.54 39.5264 30.9518 40.3062 30.356 41.0818C30.2518 41.2177 30.1479 41.3538 30.0444 41.4901C29.1767 42.6282 28.268 43.7448 27.295 44.7949C27.2628 44.834 27.2305 44.8731 27.1973 44.9134C26.9983 45.0738 26.7806 45.0442 26.5351 45.0349C26.1762 44.9712 25.9783 44.7704 25.7228 44.5214C25.6843 44.4847 25.6458 44.448 25.6062 44.4102C25.0572 43.8851 24.5516 43.3419 24.0822 42.7441C24.0153 42.6626 23.9483 42.5814 23.8811 42.5003C23.3474 41.8549 22.8448 41.1904 22.3533 40.5124C22.2418 40.3589 22.1295 40.206 22.017 40.0532C20.1644 37.5284 18.5254 34.8359 17.0411 32.08C16.9858 31.9782 16.9858 31.9782 16.9294 31.8744C15.7212 29.6477 14.7004 27.3009 14.1017 24.8339C14.0886 24.7798 14.0754 24.7258 14.0619 24.6701C13.3879 21.7511 14.2583 18.5045 15.8021 16.0027C16.3381 15.156 16.9654 14.4149 17.6564 13.6913C17.6975 13.6466 17.7387 13.6018 17.7811 13.5557C19.8176 11.4012 23.102 10.013 26.0456 9.98365ZM24.2872 11.3671C24.2313 11.379 24.1753 11.3908 24.1177 11.403C22.0132 11.8538 20.1947 12.9446 18.6134 14.3749C18.5537 14.4288 18.4941 14.4826 18.4326 14.5381C17.6173 15.3139 16.9632 16.2611 16.4259 17.246C16.402 17.2896 16.3782 17.3332 16.3536 17.3781C15.8037 18.3966 15.438 19.4655 15.1954 20.5956C15.1799 20.6662 15.1644 20.7368 15.1484 20.8095C14.5922 23.896 15.7928 26.8921 17.1095 29.6191C17.1329 29.6677 17.1563 29.7162 17.1804 29.7663C17.3081 30.0299 17.4397 30.2912 17.5737 30.5517C17.6353 30.6717 17.6965 30.7919 17.7575 30.9121C18.2904 31.9626 18.8479 32.9928 19.4532 34.0033C19.5664 34.1923 19.6784 34.382 19.7905 34.5717C20.4683 35.7104 21.2078 36.8079 21.9493 37.9057C22.0231 38.015 22.0966 38.1244 22.1702 38.2338C22.9438 39.3841 23.7613 40.5008 24.629 41.582C24.6815 41.6478 24.7341 41.7136 24.7882 41.7814C25.1029 42.1716 25.4314 42.5456 25.7714 42.9139C25.9037 43.0593 26.0298 43.2073 26.1543 43.3593C26.3084 43.5423 26.4636 43.6614 26.6798 43.7695C27.0478 43.4228 27.3666 43.0463 27.6824 42.6521C27.7813 42.5293 27.8814 42.4076 27.9816 42.2859C28.4612 41.7023 28.9219 41.1078 29.3714 40.5009C29.4912 40.3399 29.612 40.1797 29.733 40.0196C30.2453 39.3414 30.7455 38.6568 31.2317 37.9597C31.3238 37.8285 31.4171 37.6984 31.5109 37.5685C32.5641 36.1058 33.5425 34.5803 34.4728 33.037C34.5086 32.9778 34.5445 32.9185 34.5815 32.8575C35.1683 31.8855 35.7213 30.8972 36.2501 29.8925C36.2831 29.8302 36.316 29.7678 36.35 29.7036C38.1056 26.3603 39.1957 22.9272 38.0488 19.2129C37.8149 18.5033 37.4941 17.8337 37.1388 17.1777C37.1156 17.1348 37.0925 17.0919 37.0686 17.0477C35.587 14.3455 32.9942 12.4449 30.0807 11.5466C30.0308 11.5311 29.9808 11.5156 29.9294 11.4996C28.9574 11.218 28.0057 11.1282 26.9978 11.1353C26.8122 11.1364 26.6266 11.1353 26.441 11.134C25.6976 11.1331 25.0122 11.2 24.2872 11.3671Z" fill="#906E7E"/>
<path d="M30.6892 17.5158C30.8596 17.6505 31.0257 17.7893 31.1915 17.9297C31.2522 17.9754 31.2522 17.9754 31.3141 18.022C32.4677 18.9153 33.2067 20.4822 33.4474 21.8945C33.4626 22.2034 33.46 22.5124 33.4602 22.8216C33.461 22.9045 33.4619 22.9874 33.4627 23.0728C33.464 23.8358 33.3821 24.5351 33.0928 25.2441C33.0717 25.2966 33.0507 25.3491 33.0291 25.4031C32.3148 27.1391 30.9822 28.3924 29.2775 29.1406C28.4777 29.4531 27.7373 29.573 26.8806 29.5636C26.8041 29.5635 26.7275 29.5635 26.6487 29.5634C25.9967 29.56 25.4103 29.5184 24.7914 29.3072C24.7383 29.2891 24.6852 29.271 24.6306 29.2524C22.9819 28.6684 21.5947 27.5138 20.8062 25.9384C20.6782 25.666 20.5663 25.3884 20.4591 25.1074C20.4374 25.052 20.4157 24.9965 20.3934 24.9394C19.8595 23.4725 19.999 21.7307 20.6319 20.3198C21.5145 18.5429 22.8598 17.2572 24.7358 16.5753C24.8364 16.5462 24.9376 16.5194 25.0392 16.4941C25.1099 16.4752 25.1807 16.4564 25.2536 16.437C27.0967 16.0026 29.1521 16.3884 30.6892 17.5158ZM22.5782 19.2968C21.4869 20.5623 21.1861 21.9788 21.2645 23.6069C21.3442 24.6826 21.8747 25.7366 22.5782 26.5429C22.6573 26.6422 22.6573 26.6422 22.7379 26.7435C23.5308 27.6937 24.8059 28.2418 25.9962 28.457C27.552 28.5954 29.0089 28.2617 30.2559 27.2992C30.3637 27.2078 30.4706 27.1153 30.5763 27.0215C30.6232 26.981 30.67 26.9406 30.7183 26.8989C31.6212 26.0653 32.2933 24.7366 32.3626 23.5129C32.4128 21.9481 32.1076 20.5204 31.0249 19.3396C30.9004 19.2088 30.7732 19.0819 30.6446 18.955C30.5675 18.878 30.5675 18.878 30.4887 18.7994C29.3678 17.7414 27.971 17.4036 26.4734 17.434C24.9489 17.4924 23.61 18.1974 22.5782 19.2968Z" fill="#8D6275"/>
<path d="M42.182 11.4423C42.6003 11.7563 42.8516 12.2287 42.9492 12.7345C43.0175 13.2863 42.8792 13.8005 42.5679 14.2613C42.2656 14.6276 41.9222 14.9003 41.4453 14.9903C40.703 15.0379 40.1951 15.0104 39.6167 14.5332C39.2397 14.1802 39.0241 13.7836 38.9681 13.2683C38.9502 12.6984 39.0869 12.173 39.4415 11.7176C40.1794 10.9366 41.2958 10.895 42.182 11.4423Z" fill="#996E81"/>
<path d="M14.5801 37.3437C14.8155 37.4889 14.9025 37.5589 14.9902 37.8222C14.9951 38.0094 14.9966 38.1948 14.9945 38.3819C14.9942 38.4332 14.9939 38.4844 14.9936 38.5372C14.9928 38.6635 14.9916 38.7897 14.9902 38.916C15.1101 38.9112 15.1101 38.9112 15.2324 38.9064C15.3383 38.9038 15.4441 38.9013 15.5499 38.8989C15.6025 38.8966 15.6551 38.8943 15.7092 38.8919C15.9844 38.8872 16.118 38.8943 16.3566 39.0452C16.5345 39.2317 16.5593 39.2925 16.5839 39.5526C16.5592 39.844 16.4928 39.9427 16.2891 40.1464C16.0628 40.2596 15.8112 40.2217 15.5628 40.2191C15.5079 40.2188 15.4531 40.2185 15.3967 40.2181C15.2612 40.2173 15.1257 40.2161 14.9902 40.2148C14.9938 40.3273 14.9938 40.3273 14.9975 40.442C14.9994 40.5415 15.0012 40.6409 15.0031 40.7403C15.0048 40.7896 15.0065 40.8389 15.0083 40.8897C15.0126 41.2041 14.9824 41.4025 14.7852 41.6503C14.5341 41.8177 14.3249 41.8439 14.0332 41.7871C13.8131 41.6138 13.7116 41.5059 13.6231 41.2402C13.6183 41.0643 13.6167 40.8904 13.6188 40.7147C13.6191 40.6667 13.6194 40.6187 13.6197 40.5693C13.6205 40.4511 13.6218 40.333 13.6231 40.2148C13.5431 40.218 13.4632 40.2211 13.3809 40.2244C13.275 40.227 13.1692 40.2295 13.0634 40.2319C13.0108 40.2342 12.9582 40.2365 12.9041 40.2388C12.6344 40.2435 12.494 40.2344 12.2569 40.0936C12.0806 39.8988 12.0544 39.788 12.0364 39.5336C12.0605 39.3006 12.1757 39.1583 12.3242 38.9843C12.5505 38.8712 12.8022 38.9091 13.0506 38.9117C13.1054 38.912 13.1602 38.9123 13.2166 38.9126C13.3521 38.9134 13.4876 38.9147 13.6231 38.916C13.6207 38.8467 13.6183 38.7774 13.6159 38.7061C13.6139 38.6137 13.6121 38.5213 13.6102 38.4289C13.6085 38.3834 13.6068 38.338 13.605 38.2911C13.6003 37.9678 13.6547 37.753 13.8281 37.4804C14.0803 37.3123 14.2873 37.2963 14.5801 37.3437Z" fill="#A47087"/>
<path d="M41.1719 12.3926C41.3628 12.4774 41.4762 12.5516 41.6076 12.713C41.6741 12.9589 41.6576 13.1751 41.582 13.418C41.4361 13.5948 41.3346 13.6731 41.108 13.717C40.8635 13.7318 40.7146 13.7018 40.4925 13.5931C40.2933 13.3456 40.2529 13.1176 40.2832 12.8027C40.5229 12.406 40.7209 12.362 41.1719 12.3926Z" fill="#A47087"/>
</g>
<circle cx="28" cy="28" r="27.5" stroke="#A47087"/>
<defs>
<clipPath id="clip0_1_189">
<rect width="35" height="35" fill="white" transform="translate(10 10)"/>
</clipPath>
</defs>
</svg>

<svg xmlns="http://www.w3.org/2000/svg" width="56" height="56" fill="none"><g clip-path="url(#a)"><path fill="#906E7E" d="m26.046 9.984.168-.002c1.205-.012 2.367-.006 3.542.291l.18.044c2.08.507 3.871 1.52 5.494 2.896l.15.125c.278.235.52.482.755.759.079.092.16.183.243.272 1.984 2.124 3.044 5.058 3.158 7.936l.011.206c.104 3.523-1.922 7.104-3.634 10.048l-.11.19c-1.162 2.005-2.443 3.937-3.786 5.825l-.11.155a79.41 79.41 0 0 1-1.751 2.353l-.312.408a44.916 44.916 0 0 1-2.749 3.305l-.098.118c-.199.16-.416.131-.662.122-.359-.064-.557-.265-.812-.514l-.117-.11a15.785 15.785 0 0 1-1.524-1.667 39.303 39.303 0 0 1-1.729-2.232 88.487 88.487 0 0 0-.336-.459c-1.853-2.525-3.492-5.217-4.976-7.973l-.112-.206c-1.208-2.226-2.229-4.573-2.827-7.04l-.04-.164c-.674-2.919.196-6.166 1.74-8.667.536-.847 1.163-1.588 1.854-2.312l.125-.135c2.037-2.155 5.321-3.543 8.265-3.572Zm-1.759 1.383-.17.036c-2.104.45-3.922 1.542-5.504 2.972l-.18.163c-.816.776-1.47 1.723-2.007 2.708l-.072.132c-.55 1.019-.916 2.087-1.159 3.218l-.047.213c-.556 3.087.645 6.083 1.962 8.81l.07.147c.128.264.26.525.394.786l.183.36c.533 1.05 1.09 2.08 1.696 3.091l.338.569c.677 1.138 1.417 2.236 2.158 3.334l.221.328a49.292 49.292 0 0 0 2.459 3.348l.16.2c.314.39.642.764.982 1.132.133.145.259.293.383.445.154.183.31.302.526.41.368-.346.687-.723 1.002-1.117l.3-.366c.48-.584.94-1.178 1.39-1.785l.361-.481a67.132 67.132 0 0 0 1.499-2.06 66.497 66.497 0 0 0 3.35-5.102c.586-.972 1.14-1.96 1.668-2.965l.1-.19c1.756-3.343 2.846-6.776 1.699-10.49-.234-.71-.555-1.38-.91-2.035l-.07-.13c-1.482-2.702-4.075-4.603-6.988-5.501l-.152-.047c-.972-.282-1.923-.372-2.931-.365-.186.001-.371 0-.557-.001-.743 0-1.429.066-2.154.233Z"/><path fill="#8D6275" d="M30.69 17.516c.17.135.336.273.502.414l.122.092c1.154.893 1.893 2.46 2.133 3.873.016.308.013.617.013.927l.003.25c.001.764-.08 1.463-.37 2.172l-.064.16c-.714 1.735-2.047 2.988-3.752 3.737-.8.312-1.54.432-2.396.423h-.232c-.652-.004-1.239-.046-1.858-.257l-.16-.055c-1.65-.584-3.036-1.738-3.825-3.314-.128-.272-.24-.55-.347-.83l-.066-.169c-.534-1.466-.394-3.208.239-4.62.883-1.776 2.228-3.062 4.104-3.744.1-.029.202-.056.303-.08.07-.02.142-.039.215-.058 1.843-.434 3.898-.049 5.435 1.079Zm-8.112 1.78c-1.091 1.266-1.392 2.683-1.313 4.31.08 1.077.61 2.13 1.313 2.937l.16.2c.793.95 2.068 1.499 3.258 1.714 1.556.138 3.013-.195 4.26-1.158.108-.091.215-.184.32-.277l.142-.123c.903-.834 1.575-2.162 1.645-3.386.05-1.565-.255-2.993-1.338-4.173-.125-.131-.252-.258-.38-.385l-.156-.156c-1.121-1.058-2.518-1.395-4.016-1.365-1.524.058-2.863.763-3.895 1.863Z"/><path fill="#996E81" d="M42.182 11.442c.418.314.67.787.767 1.293a2.188 2.188 0 0 1-.381 1.526c-.302.367-.646.64-1.123.73-.742.047-1.25.02-1.828-.458-.377-.353-.593-.75-.649-1.265-.018-.57.119-1.095.473-1.55.738-.781 1.855-.823 2.741-.276Z"/><path fill="#A47087" d="M14.58 37.344c.236.145.322.215.41.478.005.187.007.373.005.56l-.001.155-.004.379.242-.01.318-.007.16-.007c.274-.005.408.002.647.153.178.187.202.247.227.508-.025.291-.091.39-.295.593-.226.114-.478.076-.726.073a101.094 101.094 0 0 1-.573-.004l.008.227.005.298.005.15c.005.314-.026.513-.223.76-.25.168-.46.194-.752.137-.22-.173-.321-.281-.41-.547-.005-.176-.006-.35-.004-.525v-.146l.004-.354-.242.01-.318.007-.159.007c-.27.005-.41-.005-.647-.145-.176-.195-.203-.306-.22-.56.023-.233.139-.376.287-.55.226-.113.478-.075.727-.072h.166l.406.004-.007-.21-.006-.277-.005-.138c-.005-.323.05-.538.223-.81.252-.169.46-.185.752-.137ZM41.172 12.393c.19.084.304.159.436.32.066.246.05.462-.026.705-.146.177-.247.255-.474.299a1.07 1.07 0 0 1-.615-.124c-.2-.247-.24-.475-.21-.79.24-.397.438-.441.889-.41Z"/></g><circle cx="28" cy="28" r="27.5" stroke="#A47087"/><defs><clipPath id="a"><path fill="#fff" d="M10 10h35v35H10z"/></clipPath></defs></svg>
